public/SVG/Recurso 3.svg

<?xml version="1.0" encoding="UTF-8"?>
<svg id="Capa_2" data-name="Capa 2" xmlns="http://www.w3.org/2000/svg" viewBox="0 0 438.65 438.65">
  <defs>
    <style>
      .cls-1 {
        fill: #1d1d1b;
      }
    </style>
  </defs>
  <g id="Capa_1-2" data-name="Capa 1">
    <g>
      <path class="cls-1" d="M114.97,252.68c9.17-8.57,19.16-17.89,30.94-29.16-35.85,3.38-57.73,5.74-75.91,7.89,12.51,4.25,18.33,13.93,18.33,35.9,0,3.46-.83,7.95-2.73,13.18,9.62-9.36,18.89-18.01,29.38-27.81Z"/>
      <path class="cls-1" d="M169.57,200.84c54.44-52.01,114.19-109.02,175.17-161.4C309.19,14.61,265.98,0,219.32,0,98.21,0,.03,98.16,0,219.26c31.17-4.54,85.03-11.24,169.57-18.42Z"/>
      <path class="cls-1" d="M436.89,191.95c-5.92-47.5-27.01-90.27-58.3-123.32-20.59,34.23-45.04,77.45-69.52,123.33,23.5-.2,96.99-.21,113.32-.21,5.38,0,10.21.02,14.5.21Z"/>
      <path class="cls-1" d="M285.52,192.46c26.94-50.65,54.78-99.9,78.05-138.28-.6-.52-1.2-1.05-1.8-1.56-46.38,40.21-102.69,91.48-159.62,145.39,32.94-2.54,60.17-4.46,83.37-5.54Z"/>
      <path class="cls-1" d="M418.68,212.28c-11.02,0-103.16,0-120.61.26l-3.41,6.46c-27.94,52.99-75.04,168.33-82.92,219.46,2.52.09,5.04.19,7.58.19,121.13,0,219.32-98.2,219.32-219.33,0-2.21-.1-4.4-.17-6.59-5.54-.25-11.54-.45-19.81-.45Z"/>
      <path class="cls-1" d="M274.24,213.95l.2-.38c-24.46,1.35-54.5,3.53-95.87,6.94-12.16,11.64-23.2,22.14-33.44,31.88-38.48,36.59-66.28,63.04-99.34,99-.22.34-.54.64-.82.95,34.67,45.38,86.64,76.78,146.07,84.44,7.89-52.71,55.21-169.46,83.2-222.83Z"/>
      <path class="cls-1" d="M65.94,247.96c-7.16-7.61-24.51-6.95-46.47-6.12-5.71.22-11.89.4-18.26.52,3.52,33.7,14.69,65.11,31.71,92.52,23.15-28.78,35.58-50.96,37.13-66.47.97-9.77-.37-16.46-4.11-20.44Z"/>
    </g>
  </g>
</svg>

<svg xmlns="http://www.w3.org/2000/svg" viewBox="0 0 438.65 438.65"><defs><style>.cls-1{fill:#010101;}</style></defs><g id="Capa_2" data-name="Capa 2"><g id="Capa_1-2" data-name="Capa 1"><path class="cls-1" d="M115,252.68c9.17-8.57,19.15-17.89,30.94-29.16-35.85,3.38-57.73,5.74-75.92,7.89,12.52,4.25,18.33,13.93,18.33,35.9a39.69,39.69,0,0,1-2.73,13.18C95.21,271.13,104.48,262.48,115,252.68Z"/><path class="cls-1" d="M169.57,200.84c54.44-52,114.19-109,175.17-161.4A218.25,218.25,0,0,0,219.32,0C98.21,0,0,98.16,0,219.26,31.17,214.73,85,208,169.57,200.84Z"/><path class="cls-1" d="M436.89,192a218.5,218.5,0,0,0-58.3-123.33c-20.59,34.24-45,77.46-69.52,123.33,23.51-.2,97-.21,113.32-.21C427.77,191.74,432.6,191.76,436.89,192Z"/><path class="cls-1" d="M285.52,192.46c26.94-50.64,54.78-99.9,78.05-138.28-.6-.52-1.2-1-1.81-1.56C315.38,92.83,259.07,144.09,202.15,198,235.08,195.47,262.32,193.54,285.52,192.46Z"/><path class="cls-1" d="M418.68,212.28c-11,0-103.17,0-120.61.26L294.66,219c-27.94,53-75,168.33-82.92,219.46,2.52.08,5,.19,7.58.19,121.13,0,219.33-98.19,219.33-219.33,0-2.21-.1-4.39-.17-6.59C432.94,212.49,426.94,212.28,418.68,212.28Z"/><path class="cls-1" d="M274.24,214l.2-.38c-24.46,1.35-54.5,3.52-95.87,6.94-12.16,11.64-23.2,22.14-33.44,31.88-38.48,36.59-66.28,63-99.33,99a7.35,7.35,0,0,1-.83.94A219,219,0,0,0,191,436.77C198.93,384.07,246.26,267.31,274.24,214Z"/><path class="cls-1" d="M65.94,248c-7.16-7.61-24.51-7-46.47-6.12-5.72.22-11.89.4-18.26.52a218,218,0,0,0,31.71,92.51C56.06,306.1,68.5,283.92,70.05,268.4,71,258.63,69.68,251.94,65.94,248Z"/></g></g></svg>
